X: 42977
T: Willie Macrae's
R: jig
M: 6/8
K: Dmajor
DEF A2 F|ABd efa|baf fba|fed e2 f|
dBA F2 E|DB,D A,B,D|DEF AFA|Bdd d3|
DEF A2 F|ABd efa|baf fba|fed e2 f|
dBA F2 E|DB,D A,B,D|DEF AFA|Bdd d2 e|
faa f2 e|fba fed|edf e2 d|edf edB|
ded Bgf|edB AFE|DEF AFA|Bdd d2 e|
faa f2 e|fba fed|edf edf|edf edB|
ded Bgf|edB AFE|DEF AFA|Bdd d3||

